X: 12178
T: Exploding Bow
R: jig
M: 6/8
K: Bminor
Bfd edB|AB/c/d efa|bfa efa|fed Ab^A|
Bfd edB|AB/c/d efa|bfa efa|1 fed ~B3:|2 fed B2c||
K: Dmin
|:dAd gaf|edc GAc|d2a gac'|c'ag agf|
d2A gaf|dcA GAc|d2A cdA|1 GAc cAc:|2 GAc z3||

